Server.local.boot;  //bootear servidor local
s.boot;
thisProcess.openPorts; // abre el puerto
NetAddr.localAddr; //puerto de recepcion y dirección local
OSCFunc.trace(true); //monitoreo de mensajes activo
OSCFunc.trace(false); //monitoreo de mensajes desactivado