thisProcess.openPorts; // abre el puerto
NetAddr.localAddr; //puerto de recepcion y dirección local
OSCFunc.trace(true); //monitoreo de mensajes activo
OSCFunc.trace(true); //monitoreo de mensajes desactivado